X: 45
T:Bonny Kate
M:2/4
L:1/8
S:New Victory Band arr. Steve Mansfield
R:Reel
N:http://www.lesession.co.uk
Z:Steve Mansfield 1998-2001
K:G
f|: g>f g>f | gd d2 | c/d/e dc | BG GA | 
BG GA/B/ | cA Ac | B/c/d cB |1 Ad ef :|2 A2 A2 |:
BG GA/B/ | cA dB | ec cd/e/ | f2 de/f/ | 
g>f ge | de/f/ gB | c/d/e d>c |1 BG GA :|2 BG G ||
<end>
<start>
